!!!Genre:	Khosid
!!!Mode:	Minor
!!!Listening/dance:	dance
!!!One_Mode:	yes
**kern
*I"P1
*clefG2
*k[b-e-]
*g:
*M2/4
*>A
=1
(16gLL
16ee-)
16dd
16ccJJ
(16ccLL
16dd)
16cc
16b-JJ
=2
(8qcc/
16b-LL)
16a
16g
16aJJ
(8qcc/
8b-L)
8dJ
=3
(16gLL
16ee-)
16dd
16ccJJ
16ccLL
16dd
16cc
16b-JJ
=4
(16b-LL
16a)
(16a
16gJJ)
4g
=5:|!
*>B
8b-L
(16ccL
16ddJJ)
8b-L
16ccL
16ddJJ
=6
8b-L
16ccL
16ddJJ
16ccLL
16b-
16a
16gJJ
=7
8gL
16aL
(8qcc/
16b-JJ)
8gL
16aL
(8qcc/
16b-JJ)
=8
8gL
(8qa/
16fL)
16enJJ
4f
=9
8b-L
16ccL
16ddJJ
8b-L
16ccL
16ddJJ
=10
8b-L
16ccL
16ddJJ
16ccLL
16b-
16a
16gJJ
=11
8ggL
8ddJ
16ffLL
16ee-
16dd
16ccJJ
=12
(16b-LL
16cc)
(16a
16b-JJ)
4g
==
*-
